!!!COM: Bach, Johann Sebastian
!!!OPR: Das wohltemperirte Clavier, Band I
!!!XEN: The Well-Tempered Clavier, Volume I
!!!OTL: Prelude in C-sharp Minor
!!!OMV: Prelude IV
!!!SCT: BWV 849
!!!SCA: Thematisch-systematisches Verzeichnis der musikalischen Werke Johann Sebastian Bach: Bach-Werke-Verzeichnis (Schmieder)
!!!YOR: Bach Gesellschaft Edition xiv
!!!ENC: Walter Hewlett
!!!CDT: 1685/3//-1750/7/28/
!!!OCY: Deutschland
!!!YEC: Copyright (c) 1994, 2000 Center for Computer Assisted Research in the Humanities
!!!YEM: Rights to all derivative editions reserved
!!!YEN: United States of America
**tempo	**time	**kern	**kern	**kern	**kern
*	*u=msec	*	*	*	*
*	*k[f#c#g#d#]	*k[f#c#g#d#]	*k[f#c#g#d#]	*k[f#c#g#d#]	*k[f#c#g#d#]
*	*c#:	*c#:	*c#:	*c#:	*c#:
*	*M6/4	*M6/4	*M6/4	*M6/4	*M6/4
*MM92	*MM92	*MM92	*MM92	*MM92	*MM92
=1-	=1-	=1-	=1-	=1-	=1-
230.769	0	8g#/L	2.ryy	1.ryy	[1.C#\
57.4713	130	8f#/	.	.	.
229.008	652	8e/	.	.	.
57.5816	783	8d#/	.	.	.
229.008	1304	8e/	.	.	.
57.4713	1435	8c#/J	.	.	.
346.154	1957	4.cc#/	2g#\ 2e\	.	.
28.7356	2217	8b/	.	.	.
92.0245	3261	4a/	4f#\	.	.
=2	=2	=2	=2	=2	=2
nan	3913	(8aP/	.	.	.
230.769	3913	[2.g#t/)	[2.e\	8G#/L	1.C#\]
57.4713	4043	.	.	8F#/	.
229.008	4565	.	.	8E/	.
57.5816	4696	.	.	8D#/	.
229.008	5217	.	.	8E/	.
19.1571	5348	.	.	8C#/J	.
inf	5870	.	.	(8EP/L	.
.	5870	.	.	8G#P/J	.
346.154	5870	2g#/]	2e\]	4.c#/)	.
28.7356	6130	.	.	8B/	.
92.0245	7174	4f#/	[4f#\	4A/	.
=3	=3	=3	=3	=3	=3
229.008	7826	8dd#/L	2.f#\]	[2.G#/	[2.BB#\
57.5816	7957	8cc#/	.	.	.
229.008	8478	8b#/	.	.	.
57.5816	8609	8a#/	.	.	.
229.008	9130	8b#/	.	.	.
57.4713	9261	8g#/J	.	.	.
346.154	9783	4.gg#/	2dd#\ 2g#\	2G#/]	2BB#\]
28.7356	10043	8ff#/	.	.	.
92.0245	11087	4ee/	4cc#\ 4g#\	4c#/	4C#\
=4	=4	=4	=4	=4	=4
nan	11739	(8eeP/	.	.	.
229.008	11739	[2.dd#/)	[2.b#\ [2.g#\	8d#/L	[1.G#\
57.5816	11870	.	.	8c#/	.
229.008	12391	.	.	8B#/	.
57.5816	12522	.	.	8A#/	.
229.008	13043	.	.	8B#/	.
19.157	13174	.	.	8G#/J	.
inf	13696	.	.	(8B#P/L	.
.	13696	.	.	8d#P/J	.
344.828	13696	2dd#/]	2b#\] 2g#\]	4.f#/)	.
28.7632	13957	.	.	8e/	.
92.0245	15000	4gg#/	4b#\ 4g#\	4d#/	.
=5	=5	=5	=5	=5	=5
.	15652	(16dd#/	4a\	2.e/	2.G#\]
.	15815	16cc#/L)	.	.	.
.	15978	8b#/	.	.	.
229.008	16304	8cc#/	4r	.	.
57.4713	16435	8ee/J	.	.	.
92.0245	16957	[4aa/	4r	.	.
230.769	17609	8aa/L]	2.a\	[2.d#/	[2.F#\
57.4713	17739	8gg#/	.	.	.
230.769	18261	8ff#/	.	.	.
57.4713	18391	8ee/	.	.	.
230.769	18913	8dd#/	.	.	.
57.4713	19043	8cc#/J	.	.	.
=6	=6	=6	=6	=6	=6
92.0245	19565	(16cc#/	4g#\	2.d#/]	2.F#\]
.	19728	16b/L)	.	.	.
.	19891	8a/	.	.	.
229.008	20217	8b/	4r	.	.
57.4713	20348	8dd#/J	.	.	.
92.0245	20870	[4gg#/	4r	.	.
230.769	21522	8gg#/L]	2.g#\	[2.c#/	[2.E\
57.4713	21652	8ff#/	.	.	.
230.769	22174	8ee/	.	.	.
57.4713	22304	8dd#/	.	.	.
229.008	22826	8cc#/	.	.	.
57.5816	22957	8b/J	.	.	.
=7	=7	=7	=7	=7	=7
92.0245	23478	(16b/	4f#\	2.c#/]	2.E\]
.	23641	16a/L)	.	.	.
.	23804	8g#/	.	.	.
229.008	24130	8a/	4r	.	.
57.4713	24261	8cc#/J	.	.	.
92.0245	24783	[4ff#/	4r	.	.
230.769	25435	8ff#/L]	2.f#\	[2.B/	2.D#\
57.4713	25565	8ee/	.	.	.
230.769	26087	8dd#/	.	.	.
57.4713	26217	8cc#/	.	.	.
229.008	26739	8b/	.	.	.
57.5816	26870	8a/J	.	.	.
=8	=8	=8	=8	=8	=8
229.008	27391	[2.g#t/	2.e\	8B/L]	1.E\
57.5816	27522	.	.	8A/	.
229.008	28043	.	.	8G#/	.
57.4713	28174	.	.	8F#/	.
230.769	28696	.	.	8G#/	.
19.1572	28826	.	.	8E/J	.
inf	29348	.	.	(8G#P/L	.
.	29348	.	.	8BP/J	.
344.828	29348	4.g#/]	2.ryy	4.e/)	.
28.7632	29609	8f#/	.	8d#/	.
92.0245	30652	[4aM/	.	4c#/	.
=9	=9	=9	=9	=9	=9
229.008	31304	8a/L]	1.ryy	[1.B#/	2.D#\
57.4713	31435	8g#/	.	.	.
230.769	31957	8f#/	.	.	.
57.4713	32087	8e/	.	.	.
230.769	32609	8f#/	.	.	.
57.4713	32739	8d#/J	.	.	.
230.769	33261	8dd#\L	.	.	4.G#\
57.4713	33391	8cc#\	.	.	.
230.769	33913	8b#\	.	.	.
57.4713	34043	8a#\	.	.	8F#\
229.008	34565	8b#\	.	.	4G#\
57.5816	34696	8g#\J	.	.	.
=10	=10	=10	=10	=10	=10
229.008	35217	8aa\L	2.ryy	4.B#/]	[2.C#\
57.4713	35348	8gg#\	.	.	.
230.769	35870	8ff#\	.	.	.
57.4713	36000	8ee\	.	8c#/	.
230.769	36522	8ff#\	.	4d#/	.
57.4713	36652	8dd#\J	.	.	.
230.769	37174	[2.ee/	8r	2.c#/	4.C#\]
57.4713	37304	.	8dd#\L	.	.
229.008	37826	.	8cc#\	.	.
57.5816	37957	.	8b\	.	8D#\
229.008	38478	.	8cc#\	.	4E\
57.5816	38609	.	8a#\J	.	.
=11	=11	=11	=11	=11	=11
229.008	39130	4.ee/]	(8g#/	1.ryy	8AA#/L
57.4713	39261	.	4f##\)	.	8D#/
230.769	39783	.	.	.	8C#/
57.4713	39913	8dd#/	8g#\	.	8BB/
230.769	40435	4cc#/	4a#M\	.	8C#/
57.4713	40565	.	.	.	8AA#/J
230.769	41087	4.cc#/	4.d#\	.	8FF##/L
57.4713	41217	.	.	.	8BB/
229.008	41739	.	.	.	8AA#/
57.5816	41870	8b/	8e#\	.	8GG#/
229.008	42391	4a#/	[4f##m\	.	8AA#/
57.5816	42522	.	.	.	8FF##/J
=12	=12	=12	=12	=12	=12
229.008	43043	8a#/L	8f##\]	1.ryy	[2.CC#/
57.4713	43174	8g#/	8ryy	.	.
230.769	43696	8f##/	4ryy	.	.
57.4713	43826	8e#/	.	.	.
230.769	44348	8f##/	4ryy	.	.
57.4713	44478	8d#/J	.	.	.
230.769	45000	[2.dd#/	2a#\ 2f##\	.	8CC#/L]
57.4713	45130	.	.	.	8C#/
229.008	45652	.	.	.	8BB/
57.5816	45783	.	.	.	8AA#/
229.008	46304	.	[4g#\	.	8BB/
57.4713	46435	.	.	.	8GG#/J
=13	=13	=13	=13	=13	=13
230.769	46957	8dd#/L]	2.g#\_	2.ryy	4.Em\
57.4713	47087	8b#/	.	.	.
230.769	47609	8cc#/	.	.	.
57.4713	47739	8dd#/	.	.	8D#\
230.769	48261	8ee/	.	.	4C#\
57.4713	48391	8dd#/J	.	.	.
92.0245	48913	(8cc#/	2g#\]	[2.D#/	2D#\
.	49239	4bnp/)	.	.	.
.	49891	8cc#/	.	.	.
91.8836	50217	4a#S/	4f##\	.	4DD#\
=14	=14	=14	=14	=14	=14
230.769	50870	[2.g#/	[2.d#\ [2.B\	8D#/L]	[2.GG#\
57.4713	51000	.	.	8C#/	.
230.769	51522	.	.	8BB/	.
57.4713	51652	.	.	8AA#/	.
230.769	52174	.	.	8BB/	.
57.4713	52304	.	.	8GG#/J	.
229.008	52826	2g#/]	2d#\] 2B\]	8BB/L	2.GG#\]
57.5816	52957	.	.	8D#/	.
229.008	53478	.	.	8G#/	.
57.5816	53609	.	.	8E/	.
229.008	54130	[4bM\	4ryy	8F#/	.
57.4713	54261	.	.	8D#/J	.
=15	=15	=15	=15	=15	=15
230.769	54783	8b\L]	1.ryy	2.E/	8C#\L
57.4713	54913	8g#\	.	.	8D#\
230.769	55435	8a#\	.	.	8C#\
57.4713	55565	8cc#\J	.	.	8BB\
230.769	56087	[4ee\	.	.	8C#\
57.4713	56217	.	.	.	[8AA#\J
229.008	56739	8ee\L]	.	4.F#M/	2.AA#\]
57.5816	56870	8dd#\	.	.	.
229.008	57391	8ee\	.	.	.
57.5816	57522	8gg#\J	.	8G#/	.
91.8836	58043	4ff#\	.	4A#/	.
=16	=16	=16	=16	=16	=16
230.769	58696	[2.dd#/	2ryy	8r	[2.BM\
57.4713	58826	.	.	8cc#\L	.
230.769	59348	.	.	8b\	.
57.4713	59478	.	.	8a#\	.
230.769	60000	.	[4b/	8b\	.
57.4713	60130	.	.	[8f#\J	.
!	!	!	! B4     4      2 h     u1	!	!
229.008	60652	2dd#/ 2b]	4ryy	2.f#\_ 2.d#	8B\L]
57.5816	60783	.	.	.	8B\
229.008	61304	.	2ryy	.	8A\
57.4713	61435	.	.	.	8G#\
230.769	61957	[4cc#/	.	.	8A\
57.4713	62087	.	.	.	8F#\J
=17	=17	=17	=17	=17	=17
230.769	62609	8cc#/L]	4f#\	2ryy	8D#\L
57.4713	62739	8a#/	.	.	8E\
230.769	63261	8b#/	4ryy	.	8D#\
57.4713	63391	8dd#/	.	.	8C#\
230.769	63913	8ff#/	4ryy	[4D#/	8D#\
57.4713	64043	8gg#/J	.	.	8BB#\J
229.008	64565	8aan\L	2.ryy	2.D#/]	4.GG#\
57.5816	64696	8gg#\	.	.	.
229.008	65217	8ff#\	.	.	.
57.4713	65348	8ee\	.	.	8AA#\
230.769	65870	8ff#\	.	.	4BB#\
57.4713	66000	8dd#\J	.	.	.
=18	=18	=18	=18	=18	=18
230.769	66522	[2.ee/	2ryy	8r	[2.C#/
57.4713	66652	.	.	8dd#\L	.
230.769	67174	.	.	8cc#\	.
57.4713	67304	.	.	8b#\	.
229.008	67826	.	[4cc#/	8cc#\	.
57.5816	67957	.	.	[8g#\J	.
!	!	!	! C#5    6      2 h.    u1	!	!
229.008	68478	2.ee/ 2.cc#_	2.ryy	2.g#\] 2.e	8C#\L]
57.5816	68609	.	.	.	8D#\
229.008	69130	.	.	.	8E\
57.4713	69261	.	.	.	8F#\
230.769	69783	.	.	.	8G#\
57.4713	69913	.	.	.	8A\J
=19	=19	=19	=19	=19	=19
230.769	70435	8ee\L]	1.ryy	4r	[2B\
57.4713	70565	8ddn\	.	.	.
230.769	71087	8ee#\	.	8r	.
57.4713	71217	8gg#\J	.	8c#/	.
229.008	71739	[4bb\	.	[4dn/	8B\L]
57.5816	71870	.	.	.	8B\J
229.008	72391	8bb\L]	.	4d/]	2.E#\
57.5816	72522	8ddn\	.	.	.
229.008	73043	8cc#\	.	4G#/	.
57.4713	73174	8b\	.	.	.
230.769	73696	8a\	.	[4c#/	.
57.4713	73826	8g#\J	.	.	.
=20	=20	=20	=20	=20	=20
230.769	74348	[2.aM/	1.ryy	8c#/L]	1.F#\
57.4713	74478	.	.	8B/	.
230.769	75000	.	.	8A/	.
57.4713	75130	.	.	8G#/	.
229.008	75652	.	.	8A/	.
57.5816	75783	.	.	8F#/J	.
229.008	76304	8a/L]	.	4.f#\]	.
57.4713	76435	8g#/	.	.	.
230.769	76957	8a/	.	.	.
57.4713	77087	8cc#/J	.	8e\L	.
230.769	77609	[4ff#/	.	8d#\	.
57.4713	77739	.	.	8c#\J	.
=21	=21	=21	=21	=21	=21
230.769	78261	8ff#/L]	1.ryy	4.B/	4.G#\
57.4713	78391	8ee/	.	.	.
230.769	78913	8dd#/	.	.	.
57.4713	79043	8cc#/	.	8c#/	8A\
229.008	79565	8b/	.	[4d#/	4B\
57.5816	79696	8a/J	.	.	.
92.0245	80217	(16a/	.	4.d#/]	[2.E\
.	80380	16g#/L)	.	.	.
91.7431	80543	8f#/	.	.	.
230.769	80870	8g#/	.	.	.
57.4713	81000	8b/J	.	8G#/L	.
230.769	81522	[4ee/	.	8c#/	.
57.4713	81652	.	.	8B#/J	.
=22	=22	=22	=22	=22	=22
230.769	82174	8ee/L]	1.ryy	[2.c#M/	4.E\]
57.4713	82304	8dd#/	.	.	.
229.008	82826	8cc#/	.	.	.
57.5816	82957	8b/	.	.	8D#\
229.008	83478	8a/	.	.	4C#\
57.5816	83609	8g#/J	.	.	.
92.0245	84130	(16g#/	.	4.c#/]	2.D#\
91.4634	84293	16f#/L)	.	.	.
92.0245	84457	8e/	.	.	.
230.769	84783	8f#/	.	.	.
57.4713	84913	8a/J	.	8B#/L	.
230.769	85435	[4dd#/	.	8c#/	.
57.4713	85565	.	.	8A#/J	.
=23	=23	=23	=23	=23	=23
230.769	86087	8dd#/L]	1.ryy	4.B#M/	4.G#\
57.4713	86217	8cc#/	.	.	.
229.008	86739	8b#/	.	.	.
57.5816	86870	8a#/	.	8c#/	8A#\
229.008	87391	8g#/	.	4d#/	4B#\
57.5816	87522	8f#/J	.	.	.
91.4634	88043	(16f#/	.	2.c#/	4.c#\
92.0245	88207	16ep/L)	.	.	.
.	88370	8d#/	.	.	.
230.769	88696	8e/	.	.	.
57.4713	88826	8g#/J	.	.	8Bn\L
230.769	89348	[4cc#/	.	.	8An\
57.4713	89478	.	.	.	8G#\J
=24	=24	=24	=24	=24	=24
230.769	90000	8cc#/L]	1.ryy	4.A/	[2.F#\
57.4713	90130	8b/	.	.	.
229.008	90652	8a/	.	.	.
57.5816	90783	8g#/	.	8B/	.
229.008	91304	8a/	.	4c#/	.
57.4713	91435	8f#/J	.	.	.
230.769	91957	8ff#\L	.	2.dnM/	4.F#\]
57.4713	92087	8ee\	.	.	.
230.769	92609	8ddn\	.	.	.
57.4713	92739	8cc#\	.	.	8E\
230.769	93261	8dd\	.	.	4F#\
57.4713	93391	8a\J	.	.	.
=25	=25	=25	=25	=25	=25
230.769	93913	8aa\L	2.ryy	2.B#/	4.D#\
57.4713	94043	8gg#\	.	.	.
229.008	94565	8ff#\	.	.	.
57.5816	94696	8ee\	.	.	8F#\
229.008	95217	8ff#\	.	.	[4A\
57.4713	95348	[8dd#\J	.	.	.
230.769	95870	2bb#/	[2.dd#\	4f#/	8A\L]
57.4713	96000	.	.	.	8G#\
230.769	96522	.	.	4r	8F#\
57.4713	96652	.	.	.	8E\
230.769	97174	4gg#/	.	4r	8F#\
57.4713	97304	.	.	.	8D#\J
=26	=26	=26	=26	=26	=26
229.008	97826	[2.gg#/	4.dd#\]	1.ryy	8E\L
57.5816	97957	.	.	.	8D#\
229.008	98478	.	.	.	8C#\
57.5816	98609	.	8ee\	.	8BB\
229.008	99130	.	4b#\	.	8C#\
57.4713	99261	.	.	.	8AA\J
230.769	99783	8gg#/L]	2.cc#\_	.	[2.AM\
57.4713	99913	8ff#/	.	.	.
230.769	100435	8ee/	.	.	.
57.4713	100565	8dd#/]	.	.	.
230.769	101087	8ee/	.	.	.
57.4713	101217	8cc#/J	.	.	.
=27	=27	=27	=27	=27	=27
229.008	101739	[2.ff#/	4.cc#\]	1.ryy	8A\L]
57.5816	101870	.	.	.	8G#\
229.008	102391	.	.	.	8F#\
57.5816	102522	.	8b#\	.	8E\
229.008	103043	.	4dd#\	.	8F#\
57.4713	103174	.	.	.	8D#\J
230.769	103696	8ff#/L]	[2.g#\	.	2.B#M\
57.4713	103826	8ee/	.	.	.
230.769	104348	8dd#/	.	.	.
57.4713	104478	8cc#/	.	.	.
230.769	105000	8dd#/	.	.	.
57.4713	105130	8g#/J	.	.	.
=28	=28	=28	=28	=28	=28
229.008	105652	[2.ee/	4.g#\]	1.ryy	8c#\L
57.5816	105783	.	.	.	8Bn\
229.008	106304	.	.	.	8A\
57.4713	106435	.	8cc#\L	.	8G#\
230.769	106957	.	8f#\	.	8A\
57.4713	107087	.	8g#\J	.	8F#\J
230.769	107609	8ee/L]	2.a\	.	[2.f#\
57.4713	107739	8dd#/	.	.	.
230.769	108261	8ee/	.	.	.
57.4713	108391	8ff#/	.	.	.
230.769	108913	8gg#/	.	.	.
57.4713	109043	8aa/J	.	.	.
=29	=29	=29	=29	=29	=29
229.008	109565	4.b#t/	2.g#\	1.ryy	8f#\L]
57.5816	109696	.	.	.	8e\
229.008	110217	.	.	.	8d#\
57.4713	110348	8cc#/	.	.	8c#\
230.769	110870	4dd#/	.	.	8B#\
57.4713	111000	.	.	.	8A#\J
230.769	111522	[2.f#/	2.d#\ 2.B#\	.	8G#\L
57.4713	111652	.	.	.	8F#\
230.769	112174	.	.	.	8E\
57.4713	112304	.	.	.	8D#\
229.008	112826	.	.	.	8C#\
57.5816	112957	.	.	.	8BBn\J
=30	=30	=30	=30	=30	=30
229.008	113478	8f#/L]	1.ryy	1.ryy	4.AA/
57.5816	113609	8e/	.	.	.
229.008	114130	8d#/	.	.	.
57.4713	114261	8c#/	.	.	8BB/
230.769	114783	8d#/	.	.	4GG#/
57.4713	114913	8B#/J	.	.	.
230.769	115435	8a/L	.	.	4.FF#/
57.4713	115565	8g#/	.	.	.
230.769	116087	8f#/	.	.	.
57.4713	116217	8e/	.	.	8GG#/
229.008	116739	8f#/	.	.	4EE/
57.5816	116870	8d#/J	.	.	.
=31	=31	=31	=31	=31	=31
229.008	117391	8b#/L	1.ryy	1.ryy	4.DD#/
57.5816	117522	8an/	.	.	.
229.008	118043	8g#/	.	.	.
57.4713	118174	8f#/	.	.	8EE/
230.769	118696	8g#/	.	.	4FF#/
57.4713	118826	8d#/J	.	.	.
230.769	119348	8dd#\L	.	.	4.BBB#/
57.4713	119478	8cc#\	.	.	.
230.769	120000	8b#\	.	.	.
57.4713	120130	8a#\	.	.	8DD#/
229.008	120652	8b#\	.	.	4FF#/
57.5816	120783	8g#\J	.	.	.
=32	=32	=32	=32	=32	=32
229.008	121304	4gg#\	1.ryy	1.ryy	8EE\L
57.4713	121435	.	.	.	8E\
230.769	121957	8ff#\L	.	.	8F#\
57.4713	122087	8ee\	.	.	8G#\
230.769	122609	8dd#\	.	.	8A\
57.4713	122739	8cc#\J	.	.	8F#\J
230.769	123261	8b#\L	.	.	8D#\L
57.4713	123391	8cc#\	.	.	8E\
230.769	123913	8dd#\	.	.	8F#\
57.4713	124043	8ff#\J	.	.	8D#\
229.008	124565	[4a/	.	.	8BB#\
57.5816	124696	.	.	.	8C#\J
=33	=33	=33	=33	=33	=33
229.008	125217	8a/L]	1.ryy	1.ryy	8D#\L
57.4713	125348	8g#/	.	.	8BB#\
230.769	125870	8a/	.	.	8GG#\
57.4713	126000	8f#/J	.	.	8AA#\
230.769	126522	[4aa\	.	.	8BB#\
57.4713	126652	.	.	.	8C#\J
230.769	127174	4aa\]	.	.	8D#\L
57.4713	127304	.	.	.	8E\
229.008	127826	8gg#\L	.	.	8F#\
57.5816	127957	8ff#\	.	.	8G#\
229.008	128478	8ee\	.	.	8A#\
57.5816	128609	8dd#\J	.	.	8B#\J
=34	=34	=34	=34	=34	=34
229.008	129130	[2ee/	8r	2.ryy	8c#\L
57.4713	129261	.	8dd#\L	.	8Bn\
230.769	129783	.	8cc#\	.	8An\
57.4713	129913	.	8b#\J	.	8G#\
230.769	130435	8ee/L]	4cc#\	.	8A\
57.4713	130565	8aa/J	.	.	8F#\J
344.828	131087	4.ee/	2cc#\	[2.G#/	2G#\
28.7632	131348	8ff#/	.	.	.
92.0245	132391	4dd#S/	4b#\	.	4GG#\
=35	=35	=35	=35	=35	=35
229.008	133043	[2.cc#/	8r	8G#/L]	[2.AA#\
57.4713	133174	.	8b\L]	8G#/	.
230.769	133696	.	8a#\	8F##/	.
57.4713	133826	.	8g#\	8G#/	.
230.769	134348	.	8f##\	8A#/	.
57.4713	134478	.	8g#\J	8D#/J	.
!	!	!	! (8g#P/	!	!
344.828	135000	4.cc#/]	[2.f##p\)	[2.E/	4.AA#\]
28.7632	135261	8ee/	.	.	8BB\
91.8836	136304	4dd#/	.	.	4C#\
=36	=36	=36	=36	=36	=36
230.769	136957	[2.ee/	8f##\L]	8E/L]	[2.FF##\
57.4713	137087	.	8g#\	8D#/	.
230.769	137609	.	(8a#\	8C#/	.
57.4713	137739	.	8g#\)	8BB/	.
230.769	138261	.	(8b\	8C#/	.
57.4713	138391	.	8a#\J)	8E/J	.
344.828	138913	4.ee/]	[2.a#\	2.F##/	4.FF##\]
28.7632	139174	8b#/	.	.	8GG#\
91.8836	140217	[4cc#/	.	.	4AA#\
=37	=37	=37	=37	=37	=37
*	*	*^	*	*	*
230.769	140870	[2.ff##/	8cc#/L	8a#\	1.ryy	2DD#/
57.4713	141000	.	8dd#/	8ryy	.	.
230.769	141522	.	8ee/	4ryy	.	.
57.4713	141652	.	8dd#/	.	.	.
230.769	142174	.	8cc#/	4ryy	.	4r
57.4713	142304	.	8b/J	.	.	.
229.008	142826	2ff##/]	2ryy	8a#\L	.	2.r
57.5816	142957	.	.	8g#\	.	.
229.008	143478	.	.	8f##\	.	.
57.5816	143609	.	.	8e#\	.	.
229.008	144130	4gg#/	4b#/	8f#\	.	.
57.4713	144261	.	.	8d#\J	.	.
=38	=38	=38	=38	=38	=38	=38
230.769	144783	2.cc#/_	2.ryy	8en\L	2.ryy	8r
57.4713	144913	.	.	8bn\	.	8d#\L
230.769	145435	.	.	8an\	.	8c#\
57.4713	145565	.	.	8g#\	.	8B\
230.769	146087	.	.	8f#\	.	8A\
57.4713	146217	.	.	8a\J	.	8F#\J
229.008	146739	4.cc#/]	2ryy	4.e\	2ryy	8G#\L
57.5816	146870	.	.	.	.	8D#\
229.008	147391	.	.	.	.	8E\
57.5816	147522	8dd#/	.	8f#\	.	8C#\J
229.008	148043	4b#/	8d#/L	4d#\	8GG#/L	4GG#\
57.4713	148174	.	[8f#/J	.	[8G#/J	.
=39	=39	=39	=39	=39	=39	=39
230.769	148696	[2cc#/	8f#/L]	2c#\	4G#/]	[2.C#\
57.4713	148826	.	8g#/	.	.	.
230.769	149348	.	8a/	.	4F#/	.
57.4713	149478	.	[8f#/J	.	.	.
230.769	150000	8cc#/L]	4f#/]	4d#\	4A/	.
57.4713	150130	8b#/J	.	.	.	.
.	150652	2.cc#/	2.g#/	2.e#\	2.G#/	2.C#\]
==|!	==|!	==|!	==|!	==|!	==|!	==|!
*-	*-	*-	*-	*-	*-	*-
!!!RWG: Appoggiaturas of spine '' need manual editing in measures: 2, 2, 4, 4, 8, 35
!!!END: 1994/01/08/
!!!KEY: 3053491700
!!!EMD: Converted from MuseData to Humdrum Dec 19, 2000, by Andreas Kornstaedt using muse2kern.

